!!!OTL: KLAGET NICHT DASS ICH GEFALLEN
!!!ARE: Europa, Mitteleuropa, Deutschland
!!!SCT: B0089
!!!YEM: Copyright 1995, estate of Helmut Schaffrath.
**kern
*ICvox
*Ivox
*M4/4
*k[]
*C:
{8C
8E
=1
4.G
8G
4.G
8G
=2
4A
4G
4r}
{8G
8G
=3
4c
4B
4A
4G#
=4
2A
4r}
{8c
8A
=5
4.G
8G
4G
8A
8B
=6
4d
4c
4r}
{8d
8c
=7
4.B
8A
4G
4d
=8
8c
8B
4B
4r}
{8B
8B
=9
4.c
8c
4e-
8d
8c
=10
2B
4r}
{8G
8F
=11
4.E
8E
4.A
8G
=12
8G
8F
4F
4r}
{8E
8D
=13
4E
4G
4A
4B
=14
2c
4r}
==
!!!AGN: Helden -, Ehren -, Gedaechtnis -, Kriegs - Lied
!!!ONB: ESAC (Essen Associative Code) Database: BOEHME
!!!AMT: simple quadruple
!!!AIN: vox
!!!EED: Helmut Schaffrath
!!!EEV: 1.0
*-
